icons/zoom-to-object-32.svg

<svg xmlns="http://www.w3.org/2000/svg" viewBox="0 0 32 32"><title>zoom-to-object-32</title><g id="icons"><path d="M29.64648,1.64648l.707.707L23.707,9H28v1H22V4h1V8.293ZM4,9v1h6V4H9V8.293L2.35352,1.64648l-.707.707L8.293,9ZM28,23V22H22v6h1V23.707l6.64648,6.64649.707-.707L23.707,23ZM9,28h1V22H4v1H8.293L1.64648,29.64648l.707.707L9,23.707ZM21,16a5,5,0,1,1-5-5A4.99966,4.99966,0,0,1,21,16Zm-1,0a4,4,0,1,0-4,4A4.00427,4.00427,0,0,0,20,16Z"/></g></svg>

<svg xmlns="http://www.w3.org/2000/svg" viewBox="0 0 32 32"><path d="M29.646 1.646l.707.707L23.707 9H28v1h-6V4h1v4.293zM4 9v1h6V4H9v4.293L2.354 1.646l-.707.707L8.293 9zm24 14v-1h-6v6h1v-4.293l6.646 6.646.707-.707L23.707 23zM9 28h1v-6H4v1h4.293l-6.647 6.646.707.707L9 23.707zm12-12a5 5 0 11-5-5 5 5 0 015 5zm-1 0a4 4 0 10-4 4 4.004 4.004 0 004-4z"/></svg>
